www/assets/icons/table_chart_outline.svg

<svg xmlns="http://www.w3.org/2000/svg" width="24" height="24" viewBox="0 0 24 24" fill='currentColor'><path d="M19.5 3h-15c-1.1 0-2 .9-2 2v14c0 1.1.9 2 2 2h15c1.1 0 2-.9 2-2V5c0-1.1-.9-2-2-2m0 2v3h-15V5zm-5 14h-5v-9h5zm-10-9h3v9h-3zm12 9v-9h3v9z"/></svg>

<svg width="24" height="24" viewBox="0 0 24 24" xmlns="http://www.w3.org/2000/svg" fill='currentColor'><path d="M19.5 3H4.5C3.4 3 2.5 3.9 2.5 5V19C2.5 20.1 3.4 21 4.5 21H19.5C20.6 21 21.5 20.1 21.5 19V5C21.5 3.9 20.6 3 19.5 3ZM19.5 5V8H4.5V5H19.5ZM14.5 19H9.5V10H14.5V19ZM4.5 10H7.5V19H4.5V10ZM16.5 19V10H19.5V19H16.5Z"/></svg>
